X: 257
U:~=!turn!
U:n=!diminuendo(!
U:p=!diminuendo)!
U:t=!tenuto!
M:C
L:1/8
K:F
b | a/b/c' .d'/.c'/.=b (c'>f)(tf>.f) | (e/f/g) .a/.g/.^f (tg>.c)(tc>.b) | a/b/c' .d'/.c'/.=b c'>fa>f | g<e Lc>e {/e}f2 f>b |
La/.b/.c' d'/c'/=b c'>ff>f | Le/.f/.g b/g/^f g>cc>b | a/b/c' b/a/g n(3d'c'b (3agpf | n(3edc (3BApG F2- [A,CF] |]


